X: 1
T: Inisheer
R: waltz
M: 3/4
L: 1/8
K: Dmix
B3A Bd | B3A Bd | E3B AB | D3B AG |
B3A Bd | B3A Bd | G3B A/2G/2F |1 G3E DG :|2 G3A Bd ||
e3f ed | B3A Bd | ef ed B/2c/2d |
e3A Bd | e3f ed | B3A Bd | G3B A/2G/2F |
G3A Bd | e3f ed | B3A Bd | gf ed B/2c/2d |
e3A Bd | e3f ed | B3A Bd | D3B A/2G/2F | G6 ||


Tune 211	Setting 12879

